X:5752
T:Gan Ainm
R:Reel
C:
S:
H:
N:
D:R na G Live Recording
Z:Adrian Scahill
M:4/4
L:1/8
K:G
DGG2 DGBG|d2BG AGEG|DGG2 DGBd|gedB ABGE|\
DGG2 DGBG|d2BG AGEG|DGG2 DGBd|gedB G4:||\
g3e dege|d2BG AGEG|g3e dega|b3g a2ga|\
bgg2 ageg|d2BG AGEG|DGG2 DGBd|gedB G4:||


